svg/file/folder_open_fill.svg

<?xml version="1.0" encoding="UTF-8"?>
<svg width="24px" height="24px" viewBox="0 0 24 24" version="1.1" xmlns="http://www.w3.org/2000/svg" xmlns:xlink="http://www.w3.org/1999/xlink">
    <title>folder_open_fill</title>
    <g id="页面-1" stroke="none" stroke-width="1" fill="none" fill-rule="evenodd">
        <g id="File" transform="translate(-576.000000, -48.000000)" fill-rule="nonzero">
            <g id="folder_open_fill" transform="translate(576.000000, 48.000000)">
                 <path d="M24,0 L24,24 L0,24 L0,0 L24,0 Z M12.5934901,23.257841 L12.5819402,23.2595131 L12.5108777,23.2950439 L12.4918791,23.2987469 L12.4918791,23.2987469 L12.4767152,23.2950439 L12.4056548,23.2595131 C12.3958229,23.2563662 12.3870493,23.2590235 12.3821421,23.2649074 L12.3780323,23.275831 L12.360941,23.7031097 L12.3658947,23.7234994 L12.3769048,23.7357139 L12.4804777,23.8096931 L12.4953491,23.8136134 L12.4953491,23.8136134 L12.5071152,23.8096931 L12.6106902,23.7357139 L12.6232938,23.7196733 L12.6232938,23.7196733 L12.6266527,23.7031097 L12.609561,23.275831 C12.6075724,23.2657013 12.6010112,23.2592993 12.5934901,23.257841 L12.5934901,23.257841 Z M12.8583906,23.1452862 L12.8445485,23.1473072 L12.6598443,23.2396597 L12.6498822,23.2499052 L12.6498822,23.2499052 L12.6471943,23.2611114 L12.6650943,23.6906389 L12.6699349,23.7034178 L12.6699349,23.7034178 L12.678386,23.7104931 L12.8793402,23.8032389 C12.8914285,23.8068999 12.9022333,23.8029875 12.9078286,23.7952264 L12.9118235,23.7811639 L12.8776777,23.1665331 C12.8752882,23.1545897 12.8674102,23.1470016 12.8583906,23.1452862 L12.8583906,23.1452862 Z M12.1430473,23.1473072 C12.1332178,23.1423925 12.1221763,23.1452606 12.1156365,23.1525954 L12.1099173,23.1665331 L12.0757714,23.7811639 C12.0751323,23.7926639 12.0828099,23.8018602 12.0926481,23.8045676 L12.108256,23.8032389 L12.3092106,23.7104931 L12.3186497,23.7024347 L12.3186497,23.7024347 L12.3225043,23.6906389 L12.340401,23.2611114 L12.337245,23.2485176 L12.337245,23.2485176 L12.3277531,23.2396597 L12.1430473,23.1473072 Z" id="MingCute" fill-rule="nonzero"></path>
                <path d="M21.3282,10 C21.6351,10 21.8625097,10.2712417 21.8242586,10.5634693 L21.8071,10.6435 L18.9168,20.2871 C18.8015273,20.6717364 18.4692298,20.9462074 18.0779089,20.9929325 L17.9589,21 L4,21 C3.59423,21 3.21668,20.8792 2.90138,20.6715 C2.874695,20.5989 2.86455313,20.5192687 2.87495797,20.4379641 L2.89236,20.3563 L5.78616,10.7126 C5.90154182,10.3280545 6.23376661,10.053757 6.62499065,10.0070628 L6.74397,10 L21.3282,10 Z M9.51938,3 C10.066148,3 10.5863318,3.2237058 10.9615564,3.61430643 L11.0811,3.75061 L12.4806,5.5 L19,5.5 C20.0543909,5.5 20.9181678,6.31587733 20.9945144,7.35073759 L21,7.5 L21,8 L6.74397,8 C5.48229381,8 4.36287612,8.78812698 3.93022833,9.95930159 L3.87055,10.1378 L2,16.3714 L2,5 C2,3.94563773 2.81587733,3.08183483 3.85073759,3.00548573 L4,3 L9.51938,3 Z" id="形状" fill="#09244B"></path>
            </g>
        </g>
    </g>
</svg>

<svg xmlns="http://www.w3.org/2000/svg" width="24" height="24"><g fill="none" fill-rule="nonzero"><path d="M24 0v24H0V0h24ZM12.593 23.258l-.011.002-.071.035-.02.004-.014-.004-.071-.035c-.01-.004-.019-.001-.024.005l-.004.01-.017.428.005.02.01.013.104.074.015.004.012-.004.104-.074.012-.016.004-.017-.017-.427c-.002-.01-.009-.017-.017-.018Zm.265-.113-.013.002-.185.093-.01.01-.003.011.018.43.005.012.008.007.201.093c.012.004.023 0 .029-.008l.004-.014-.034-.614c-.003-.012-.01-.02-.02-.022Zm-.715.002a.023.023 0 0 0-.027.006l-.006.014-.034.614c0 .012.007.02.017.024l.015-.002.201-.093.01-.008.004-.011.017-.43-.003-.012-.01-.01-.184-.092Z"/><path fill="#09244B" d="M21.328 10a.5.5 0 0 1 .496.563l-.017.08-2.89 9.644a1 1 0 0 1-.84.706L17.96 21H4a1.99 1.99 0 0 1-1.099-.328.494.494 0 0 1-.026-.234l.017-.082 2.894-9.643a1 1 0 0 1 .839-.706L6.744 10h14.584ZM9.52 3a2 2 0 0 1 1.443.614l.12.137L12.48 5.5H19a2 2 0 0 1 1.995 1.85L21 7.5V8H6.744A3 3 0 0 0 3.93 9.96l-.06.178L2 16.37V5a2 2 0 0 1 1.85-1.995L4 3h5.52Z"/></g></svg>
